X:8
T:"The Almanac" by Mickie Zekley  1988
D:A tune written for an NPR radio show.
S:Original Tune
R:Jig
O:Mendocino, California
M:6/8
Q:325
F:http://larkcamp.com/meabc.txt
K:Am
A|:def edc|def g2 e|afa gec|def e2 c|afa gec|def edc|def edc|d3-d2A:||:cBA e2c|fed g2e|afa gec|def e2c|afa gec|def edc|def edc|1d2-d2A:|2d3dz2:|
